X:73
T: Pista Mari vetett ágyát
O: Onest (Bákó), 1929
Q: 1/4=152
M:4/4
L:1/4
K:D
FAFA | FAGF | 
BAG<F | E2 B,z | 
D>E FD | B,>D F E | 
CA,B,C | D2 D z | 

